; generated by PrusaSlicer 2.4.0+win64 on 2022-02-13 at 14:49:17 UTC

; 

; external perimeters extrusion width = 0.45mm
; perimeters extrusion width = 0.45mm
; infill extrusion width = 0.45mm
; solid infill extrusion width = 0.45mm
; top infill extrusion width = 0.40mm
; support material extrusion width = 0.38mm
; first layer extrusion width = 0.42mm

M201 X500 Y500 Z100 E5000 ; sets maximum accelerations, mm/sec^2
M203 X500 Y500 Z10 E60 ; sets maximum feedrates, mm/sec
M204 P500 R1000 T500 ; sets acceleration (P, T) and retract acceleration (R), mm/sec^2
M205 X8.00 Y8.00 Z0.40 E5.00 ; sets the jerk limits, mm/sec
M205 S0 T0 ; sets the minimum extruding and travel feed rate, mm/sec
M107
;TYPE:Custom
G90 ; use absolute coordinates
M83 ; extruder relative mode
M104 S120 ; set temporary nozzle temp to prevent oozing during homing and auto bed leveling
M140 S60 ; set final bed temp
G4 S10 ; allow partial nozzle warmup
G28 ; home all axis
G1 Z50 F240
G1 X2 Y10 F3000
M104 S210 ; set final nozzle temp
M190 S60 ; wait for bed temp to stabilize
M109 S210 ; wait for nozzle temp to stabilize
G1 Z0.28 F240
G92 E0
G1 Y140 E10 F1500 ; prime the nozzle
G1 X2.3 F5000
G92 E0
G1 Y10 E10 F1200 ; prime the nozzle
G92 E0
G21 ; set units to millimeters
G90 ; use absolute coordinates
M83 ; use relative distances for extrusion
; Filament gcode
M107
;LAYER_CHANGE
;Z:0.2
;HEIGHT:0.2
;BEFORE_LAYER_CHANGE
G92 E0
;0.2


G1 E-5 F3600
G1 Z.2 F9000
;AFTER_LAYER_CHANGE
;0.2
G1 X84.078 Y35.959
G1 E5 F2400
;TYPE:Skirt/Brim
;WIDTH:0.42
G1 F1200
G1 X84.734 Y34.509 E.04991
G1 X85.604 Y33.206 E.04912
G1 X86.94 Y31.832 E.06009
G1 X88.541 Y30.737 E.06082
G1 X89.831 Y30.155 E.04438
G1 X91.218 Y29.762 E.04519
G1 X92.95 Y29.573 E.05465
G1 X148.316 Y29.573 E1.73596
G1 X150.05 Y29.761 E.05468
G1 X151.408 Y30.144 E.04424
G1 X152.718 Y30.732 E.04503
G1 X154.096 Y31.641 E.05174
G1 X155.313 Y32.789 E.05247
G1 X156.314 Y34.133 E.05253
G1 X157.067 Y35.63 E.05254
G1 X157.548 Y37.235 E.05253
G1 X157.735 Y38.82 E.05005
G1 X157.748 Y104.28 E2.05245
G1 X157.598 Y105.869 E.05004
G1 X157.191 Y107.405 E.04985
G1 X156.534 Y108.856 E.04991
G1 X155.665 Y110.159 E.04912
G1 X154.329 Y111.533 E.06008
G1 X152.728 Y112.628 E.06082
G1 X151.438 Y113.21 E.04438
G1 X150.051 Y113.603 E.04519
G1 X148.24 Y113.796 E.05712
G1 X93.037 Y113.796 E1.73085
G1 X91.448 Y113.646 E.05003
G1 X89.911 Y113.239 E.04985
G1 X88.461 Y112.582 E.04991
G1 X87.158 Y111.713 E.04912
G1 X85.784 Y110.377 E.06009
G1 X84.689 Y108.775 E.06083
G1 X84.107 Y107.485 E.04438
G1 X83.714 Y106.099 E.04519
G1 X83.521 Y104.287 E.05711
G1 X83.521 Y39.085 E2.04439
G1 X83.671 Y37.496 E.05003
G1 X84.063 Y36.017 E.04797
G1 X84.425 Y36.113 F9000
G1 F1200
G1 X85.057 Y34.705 E.04837
G1 X85.908 Y33.43 E.04807
G1 X87.197 Y32.109 E.05787
G1 X88.711 Y31.074 E.05751
G1 X89.973 Y30.505 E.04341
G1 X91.305 Y30.129 E.04337
G1 X92.981 Y29.949 E.05285
G1 X148.286 Y29.949 E1.73407
G1 X149.963 Y30.129 E.05288
G1 X151.292 Y30.503 E.0433
G1 X152.549 Y31.07 E.04323
G1 X153.874 Y31.946 E.0498
G1 X155.042 Y33.052 E.05042
G1 X156.001 Y34.344 E.05047
G1 X156.722 Y35.784 E.05048
G1 X157.182 Y37.326 E.05047
G1 X157.359 Y38.853 E.04817
G1 X157.371 Y104.271 E2.05116
G1 X157.229 Y105.788 E.04776
G1 X156.84 Y107.265 E.0479
G1 X156.212 Y108.66 E.04795
G1 X155.361 Y109.935 E.04807
G1 X154.072 Y111.256 E.05787
G1 X152.558 Y112.291 E.05751
G1 X151.296 Y112.86 E.04341
G1 X149.964 Y113.236 E.04337
G1 X148.23 Y113.419 E.05469
G1 X93.045 Y113.419 E1.73027
G1 X91.529 Y113.277 E.04775
G1 X90.052 Y112.888 E.0479
G1 X88.657 Y112.26 E.04795
G1 X87.382 Y111.409 E.04807
G1 X86.061 Y110.12 E.05787
G1 X85.026 Y108.605 E.05752
G1 X84.457 Y107.343 E.04342
G1 X84.081 Y106.012 E.04337
G1 X83.898 Y104.278 E.05468
G1 X83.898 Y39.093 E2.04381
G1 X84.04 Y37.577 E.04775
G1 X84.41 Y36.171 E.04559
G1 X84.774 Y36.267 F9000
G1 F1200
G1 X85.394 Y34.875 E.04778
G1 X86.212 Y33.654 E.04607
G1 X87.426 Y32.409 E.05452
G1 X88.882 Y31.41 E.05537
G1 X90.089 Y30.864 E.04156
G1 X91.391 Y30.496 E.04242
G1 X93.01 Y30.325 E.05104
G1 X148.257 Y30.325 E1.73221
G1 X149.877 Y30.496 E.05108
G1 X151.15 Y30.853 E.04147
G1 X152.38 Y31.407 E.0423
G1 X153.651 Y32.251 E.04784
G1 X154.77 Y33.314 E.04837
G1 X155.688 Y34.555 E.04841
G1 X156.377 Y35.937 E.04842
G1 X156.815 Y37.417 E.04841
G1 X156.983 Y38.885 E.0463
G1 X156.994 Y104.262 E2.04988
G1 X156.855 Y105.737 E.04643
G1 X156.48 Y107.153 E.04594
G1 X155.875 Y108.49 E.046
G1 X155.057 Y109.71 E.04607
G1 X153.843 Y110.955 E.05452
G1 X152.387 Y111.954 E.05537
G1 X151.18 Y112.501 E.04156
G1 X149.878 Y112.868 E.04242
G1 X148.22 Y113.042 E.05225
G1 X93.054 Y113.042 E1.72969
G1 X91.58 Y112.903 E.04643
G1 X90.164 Y112.528 E.04594
G1 X88.827 Y111.923 E.046
G1 X87.606 Y111.105 E.04607
G1 X86.361 Y109.891 E.05452
G1 X85.362 Y108.435 E.05538
G1 X84.816 Y107.227 E.04156
G1 X84.448 Y105.925 E.04241
G1 X84.275 Y104.268 E.05224
G1 X84.275 Y39.102 E2.04323
G1 X84.413 Y37.628 E.04643
G1 X84.759 Y36.325 E.04225
G1 X85.121 Y36.421 F9000
G1 F1200
G1 X85.731 Y35.045 E.04717
G1 X86.515 Y33.879 E.04405
G1 X87.682 Y32.686 E.05233
G1 X89.052 Y31.747 E.05209
G1 X90.232 Y31.213 E.04059
G1 X91.477 Y30.864 E.04057
G1 X93.039 Y30.701 E.04924
G1 X148.227 Y30.701 E1.73038
G1 X149.791 Y30.864 E.04928
G1 X151.035 Y31.212 E.04051
G1 X152.211 Y31.744 E.04047
G1 X153.428 Y32.556 E.04588
G1 X154.498 Y33.575 E.04632
G1 X155.375 Y34.765 E.04635
G1 X156.032 Y36.09 E.04635
G1 X156.449 Y37.508 E.04635
G1 X156.607 Y38.916 E.04444
G1 X156.617 Y104.254 E2.04862
G1 X156.487 Y105.656 E.04416
G1 X156.13 Y107.012 E.04396
G1 X155.538 Y108.32 E.045
G1 X154.754 Y109.485 E.04405
G1 X153.587 Y110.678 E.05233
G1 X152.216 Y111.618 E.05209
G1 X151.037 Y112.152 E.04059
G1 X149.791 Y112.501 E.04057
G1 X148.21 Y112.665 E.04984
G1 X93.063 Y112.665 E1.72911
G1 X91.661 Y112.535 E.04415
G1 X90.305 Y112.178 E.04396
G1 X88.997 Y111.586 E.045
G1 X87.831 Y110.802 E.04405
G1 X86.638 Y109.635 E.05233
G1 X85.699 Y108.264 E.0521
G1 X85.165 Y107.085 E.04059
G1 X84.816 Y105.839 E.04056
G1 X84.652 Y104.258 E.04983
G1 X84.652 Y39.111 E2.04266
G1 X84.782 Y37.708 E.04415
G1 X85.106 Y36.479 E.03988
G1 X85.47 Y36.575 F9000
G1 F1200
G1 X85.499 Y36.465 E.00358
G1 X86.067 Y35.216 E.04302
G1 X86.818 Y34.104 E.04204
G1 X87.911 Y32.986 E.04903
G1 X89.224 Y32.083 E.04997
G1 X90.348 Y31.572 E.0387
G1 X91.564 Y31.231 E.0396
G1 X93.068 Y31.077 E.04742
G1 X148.218 Y31.078 E1.72918
G1 X149.705 Y31.231 E.04688
G1 X150.893 Y31.562 E.03865
G1 X152.041 Y32.081 E.03952
G1 X153.205 Y32.86 E.0439
G1 X154.225 Y33.836 E.04427
G1 X155.061 Y34.975 E.04429
G1 X155.686 Y36.241 E.04429
G1 X156.082 Y37.597 E.04429
G1 X156.231 Y38.947 E.04258
G1 X156.24 Y104.245 E2.04737
G1 X156.113 Y105.605 E.04284
G1 X155.77 Y106.9 E.04199
G1 X155.202 Y108.149 E.04302
G1 X154.451 Y109.26 E.04204
G1 X153.358 Y110.378 E.04903
G1 X152.045 Y111.282 E.04997
G1 X150.921 Y111.792 E.0387
G1 X149.705 Y112.133 E.0396
G1 X148.201 Y112.288 E.04742
G1 X93.072 Y112.288 E1.72854
G1 X91.711 Y112.161 E.04283
G1 X90.417 Y111.817 E.04199
G1 X89.168 Y111.25 E.04302
G1 X88.057 Y110.499 E.04204
G1 X86.938 Y109.406 E.04903
G1 X86.035 Y108.093 E.04998
G1 X85.524 Y106.969 E.03871
G1 X85.183 Y105.753 E.03959
G1 X85.029 Y104.249 E.04741
G1 X85.029 Y39.119 E2.04208
G1 X85.156 Y37.759 E.04283
G1 X85.455 Y36.633 E.03653
G1 X85.819 Y36.73 F9000
G1 F1200
G1 X85.86 Y36.577 E.00496
G1 X86.404 Y35.387 E.04102
G1 X87.12 Y34.33 E.04003
G1 X88.167 Y33.264 E.04687
G1 X89.395 Y32.42 E.04672
G1 X90.49 Y31.922 E.03772
G1 X91.649 Y31.599 E.03772
G1 X93.077 Y31.454 E.04502
G1 X148.208 Y31.455 E1.72859
G1 X149.619 Y31.599 E.04447
G1 X150.777 Y31.921 E.03768
G1 X151.87 Y32.418 E.03765
G1 X152.98 Y33.164 E.04193
G1 X153.952 Y34.096 E.04222
G1 X154.746 Y35.184 E.04223
G1 X155.34 Y36.393 E.04223
G1 X155.715 Y37.686 E.04223
G1 X155.855 Y38.977 E.04072
G1 X155.863 Y104.237 E2.04616
G1 X155.744 Y105.524 E.04054
G1 X155.409 Y106.788 E.04099
G1 X154.865 Y107.977 E.04102
G1 X154.149 Y109.034 E.04003
G1 X153.102 Y110.101 E.04687
G1 X151.874 Y110.945 E.04672
G1 X150.779 Y111.443 E.03772
G1 X149.62 Y111.766 E.03772
G1 X148.191 Y111.91 E.04502
G1 X93.08 Y111.91 E1.72798
G1 X91.793 Y111.792 E.04054
G1 X90.529 Y111.457 E.04099
G1 X89.339 Y110.913 E.04102
G1 X88.283 Y110.197 E.04003
G1 X87.216 Y109.15 E.04687
G1 X86.372 Y107.921 E.04673
G1 X85.874 Y106.826 E.03773
G1 X85.551 Y105.667 E.03771
G1 X85.406 Y104.239 E.04501
G1 X85.406 Y39.128 E2.04152
G1 X85.525 Y37.841 E.04054
G1 X85.804 Y36.788 E.03415
G1 X86.168 Y36.885 F9000
G1 F1200
G1 X86.22 Y36.69 E.00632
G1 X86.739 Y35.559 E.03902
G1 X87.422 Y34.557 E.03803
G1 X88.396 Y33.564 E.04362
G1 X89.567 Y32.756 E.04461
G1 X90.606 Y32.281 E.03581
G1 X91.734 Y31.967 E.03673
G1 X93.087 Y31.831 E.04261
G1 X148.199 Y31.832 E1.72801
G1 X149.535 Y31.967 E.04209
G1 X150.635 Y32.271 E.03578
G1 X151.7 Y32.755 E.03668
G1 X152.756 Y33.467 E.03993
G1 X153.678 Y34.356 E.04016
G1 X154.432 Y35.392 E.04017
G1 X154.994 Y36.543 E.04017
G1 X155.348 Y37.774 E.04017
G1 X155.479 Y39.007 E.03888
G1 X155.485 Y104.228 E2.04495
G1 X155.37 Y105.473 E.03921
G1 X155.049 Y106.674 E.03899
G1 X154.53 Y107.805 E.03902
G1 X153.847 Y108.808 E.03803
G1 X152.873 Y109.801 E.04362
G1 X151.702 Y110.609 E.04461
G1 X150.663 Y111.084 E.03581
G1 X149.534 Y111.398 E.03673
G1 X148.182 Y111.533 E.04261
G1 X93.089 Y111.533 E1.72741
G1 X91.844 Y111.418 E.03921
G1 X90.642 Y111.097 E.03899
G1 X89.511 Y110.577 E.03902
G1 X88.509 Y109.895 E.03803
G1 X87.516 Y108.92 E.04362
G1 X86.707 Y107.749 E.04461
G1 X86.233 Y106.711 E.03581
G1 X85.919 Y105.582 E.03673
G1 X85.783 Y104.23 E.0426
G1 X85.783 Y39.137 E2.04096
G1 X85.899 Y37.891 E.03921
G1 X86.152 Y36.943 E.03078
G1 X86.515 Y37.039 F9000
G1 F1200
G1 X86.569 Y36.832 E.00672
G1 X87.06 Y35.758 E.03702
G1 X87.724 Y34.783 E.03699
G1 X88.652 Y33.841 E.04146
G1 X89.739 Y33.092 E.04139
G1 X90.749 Y32.63 E.03481
G1 X91.819 Y32.334 E.03482
G1 X93.096 Y32.208 E.04023
G1 X148.19 Y32.209 E1.72743
G1 X149.45 Y32.334 E.0397
G1 X150.52 Y32.63 E.0348
G1 X151.528 Y33.091 E.03477
G1 X152.53 Y33.77 E.03794
G1 X153.403 Y34.615 E.03811
G1 X154.116 Y35.599 E.03811
G1 X154.648 Y36.693 E.03811
G1 X154.981 Y37.861 E.03811
G1 X155.103 Y39.036 E.03703
G1 X155.108 Y104.219 E2.04378
G1 X155.002 Y105.392 E.03693
G1 X154.699 Y106.533 E.03699
G1 X154.209 Y107.607 E.03702
G1 X153.545 Y108.582 E.03699
G1 X152.617 Y109.524 E.04146
G1 X151.53 Y110.273 E.04139
G1 X150.52 Y110.735 E.03481
G1 X149.45 Y111.03 E.03482
G1 X148.173 Y111.156 E.04023
G1 X93.097 Y111.156 E1.72686
G1 X91.924 Y111.05 E.03692
G1 X90.784 Y110.747 E.03699
G1 X89.71 Y110.257 E.03702
G1 X88.735 Y109.593 E.03699
G1 X87.793 Y108.665 E.04147
G1 X87.044 Y107.578 E.0414
G1 X86.582 Y106.568 E.03482
G1 X86.286 Y105.498 E.03481
G1 X86.161 Y104.221 E.04022
G1 X86.161 Y39.145 E2.0404
G1 X86.267 Y37.972 E.03692
G1 X86.499 Y37.097 E.02839
G1 X86.863 Y37.194 F9000
G1 F1200
G1 X86.929 Y36.945 E.00809
G1 X87.396 Y35.931 E.03502
G1 X88.026 Y35.01 E.03497
G1 X88.882 Y34.141 E.03825
G1 X89.912 Y33.427 E.03929
G1 X90.864 Y32.989 E.03286
G1 X91.904 Y32.702 E.03382
G1 X93.105 Y32.585 E.03784
G1 X148.181 Y32.586 E1.72687
G1 X149.365 Y32.702 E.03732
G1 X150.404 Y32.989 E.0338
G1 X151.356 Y33.427 E.03285
G1 X152.304 Y34.072 E.03595
G1 X153.128 Y34.873 E.03605
G1 X153.801 Y35.806 E.03605
G1 X154.301 Y36.841 E.03605
G1 X154.614 Y37.948 E.03605
G1 X154.727 Y39.065 E.0352
G1 X154.731 Y104.211 E2.04261
G1 X154.628 Y105.342 E.03561
G1 X154.339 Y106.419 E.03498
G1 X153.873 Y107.434 E.03502
G1 X153.243 Y108.355 E.03497
G1 X152.387 Y109.224 E.03825
G1 X151.357 Y109.938 E.03929
G1 X150.405 Y110.375 E.03286
G1 X149.365 Y110.663 E.03382
G1 X148.164 Y110.779 E.03784
G1 X93.106 Y110.779 E1.72631
G1 X91.975 Y110.676 E.03561
G1 X90.897 Y110.387 E.03498
G1 X89.883 Y109.921 E.03502
G1 X88.962 Y109.291 E.03497
G1 X88.093 Y108.435 E.03825
G1 X87.379 Y107.405 E.0393
G1 X86.941 Y106.452 E.03287
G1 X86.654 Y105.413 E.03381
G1 X86.538 Y104.212 E.03783
G1 X86.538 Y39.154 E2.03985
G1 X86.641 Y38.023 E.0356
G1 X86.847 Y37.252 E.02501
G1 X87.21 Y37.348 F9000
G1 F1200
G1 X87.279 Y37.088 E.00845
G1 X87.732 Y36.103 E.03399
G1 X88.327 Y35.238 E.03292
G1 X89.137 Y34.419 E.03614
G1 X90.084 Y33.763 E.03611
G1 X91.007 Y33.339 E.03186
G1 X91.987 Y33.07 E.03186
G1 X93.114 Y32.963 E.03548
G1 X148.172 Y32.963 E1.72631
G1 X149.282 Y33.07 E.03496
G1 X150.261 Y33.338 E.03185
G1 X151.184 Y33.763 E.03185
G1 X152.078 Y34.374 E.03393
G1 X152.853 Y35.131 E.03399
G1 X153.484 Y36.012 E.03399
G1 X153.954 Y36.989 E.03399
G1 X154.246 Y38.033 E.03399
G1 X154.351 Y39.092 E.03337
G1 X154.354 Y104.202 E2.04149
G1 X154.259 Y105.261 E.03332
G1 X153.99 Y106.277 E.03295
G1 X153.537 Y107.262 E.03399
G1 X152.942 Y108.127 E.03292
G1 X152.132 Y108.946 E.03614
G1 X151.185 Y109.602 E.03611
G1 X150.262 Y110.026 E.03186
G1 X149.282 Y110.294 E.03186
G1 X148.155 Y110.402 E.03548
G1 X93.114 Y110.402 E1.72577
G1 X92.056 Y110.307 E.03332
G1 X91.04 Y110.038 E.03295
G1 X90.055 Y109.585 E.03399
G1 X89.19 Y108.99 E.03292
G1 X88.371 Y108.18 E.03614
G1 X87.715 Y107.232 E.03612
G1 X87.291 Y106.309 E.03186
G1 X87.022 Y105.329 E.03185
G1 X86.915 Y104.203 E.03547
G1 X86.915 Y39.162 E2.03931
G1 X87.01 Y38.104 E.03332
G1 X87.195 Y37.406 E.02262
G1 X87.559 Y37.503 F9000
G1 F1200
G1 X87.639 Y37.201 E.00981
G1 X88.067 Y36.276 E.03193
G1 X88.627 Y35.466 E.03089
G1 X89.367 Y34.718 E.03299
G1 X90.257 Y34.098 E.034
G1 X91.15 Y33.688 E.03083
G1 X92.07 Y33.438 E.02988
G1 X93.122 Y33.34 E.03314
G1 X148.163 Y33.34 E1.72576
G1 X149.198 Y33.438 E.03259
G1 X150.146 Y33.698 E.03083
G1 X151.011 Y34.098 E.02988
G1 X151.85 Y34.675 E.03192
G1 X152.576 Y35.388 E.03193
G1 X153.168 Y36.217 E.03193
G1 X153.606 Y37.136 E.03193
G1 X153.878 Y38.118 E.03193
G1 X153.975 Y39.119 E.03155
G1 X153.977 Y104.194 E2.04039
G1 X153.89 Y105.18 E.03103
G1 X153.63 Y106.164 E.03192
G1 X153.202 Y107.088 E.03193
G1 X152.642 Y107.899 E.03089
G1 X151.902 Y108.647 E.03299
G1 X151.012 Y109.266 E.034
G1 X150.119 Y109.677 E.03083
G1 X149.199 Y109.926 E.02988
G1 X148.147 Y110.025 E.03314
G1 X93.122 Y110.025 E1.72524
G1 X92.137 Y109.938 E.03103
G1 X91.153 Y109.678 E.03192
G1 X90.228 Y109.25 E.03193
G1 X89.418 Y108.69 E.03089
G1 X88.67 Y107.95 E.03299
G1 X88.05 Y107.059 E.03404
G1 X87.65 Y106.194 E.02987
G1 X87.39 Y105.246 E.03083
G1 X87.292 Y104.194 E.0331
G1 X87.292 Y39.17 E2.03879
G1 X87.379 Y38.185 E.03103
G1 X87.544 Y37.561 E.02023
G1 X87.907 Y37.658 F9000
G1 F1200
G1 X87.999 Y37.314 E.01116
G1 X88.402 Y36.451 E.02987
G1 X88.927 Y35.695 E.02885
G1 X89.622 Y34.996 E.03091
G1 X90.43 Y34.434 E.03088
G1 X91.265 Y34.048 E.02882
G1 X92.153 Y33.807 E.02885
G1 X93.131 Y33.717 E.0308
G1 X148.155 Y33.717 E1.72523
G1 X149.115 Y33.806 E.03025
G1 X150.003 Y34.047 E.02883
G1 X150.838 Y34.433 E.02885
G1 X151.622 Y34.975 E.02988
G1 X152.299 Y35.645 E.02987
G1 X152.85 Y36.422 E.02987
G1 X153.258 Y37.282 E.02987
G1 X153.51 Y38.201 E.02987
G1 X153.599 Y39.145 E.02974
G1 X153.6 Y104.186 E2.0393
G1 X153.516 Y105.13 E.02972
G1 X153.27 Y106.05 E.02986
G1 X152.867 Y106.914 E.02987
G1 X152.342 Y107.669 E.02886
G1 X151.647 Y108.369 E.03091
G1 X150.838 Y108.931 E.03088
G1 X150.004 Y109.317 E.02882
G1 X149.116 Y109.558 E.02885
G1 X148.138 Y109.648 E.0308
G1 X93.131 Y109.648 E1.72472
G1 X92.187 Y109.564 E.02972
G1 X91.267 Y109.318 E.02986
G1 X90.403 Y108.915 E.02987
G1 X89.647 Y108.39 E.02886
G1 X88.948 Y107.695 E.03091
G1 X88.385 Y106.886 E.0309
G1 X87.999 Y106.051 E.02885
G1 X87.759 Y105.163 E.02883
G1 X87.669 Y104.186 E.03077
G1 X87.669 Y39.179 E2.03826
G1 X87.753 Y38.234 E.02972
G1 X87.891 Y37.716 E.01682
G1 X88.254 Y37.812 F9000
G1 F1200
G1 X88.348 Y37.457 E.01151
G1 X88.721 Y36.652 E.02781
G1 X89.227 Y35.925 E.0278
G1 X89.877 Y35.275 E.02882
G1 X90.605 Y34.768 E.02781
G1 X91.379 Y34.407 E.02679
G1 X92.235 Y34.175 E.02781
G1 X93.139 Y34.094 E.02845
G1 X148.146 Y34.095 E1.72471
G1 X149.034 Y34.175 E.02794
G1 X149.859 Y34.396 E.02679
G1 X150.664 Y34.769 E.02781
G1 X151.392 Y35.275 E.02781
G1 X152.021 Y35.9 E.02781
G1 X152.532 Y36.625 E.0278
G1 X152.91 Y37.427 E.02781
G1 X153.142 Y38.283 E.0278
G1 X153.222 Y39.171 E.02794
